**kern	**kern
*part1	*part1
*staff2	*staff1
*I"Piano	*
*clefF4	*clefG2
*k[f#]	*k[f#]
=1	=1
*^	*^
4E	4BB	4B	4G
4D#X	4BB	4B	4F#
=	=	=	=
4E	(4EE	(4B	4G
8EL	8GGL)	8eL)	8BL
8EJ	8GGJ	8eJ	8BJ
=	=	=	=
4Fn	4BB	(8.dL	4A
.	.	16BJk)	.
4F	4BB	4d	4A
=	=	=	=
4Fn	(4BB	(4d	4G
4ryy	8E-XL)	8GL) 8c 8g	4ryy
.	8E-J	8GJ 8c 8g	.
=	=	=	=
4A-X	4D	(8.fnL	4c
.	.	16dJk	.
4A-	4D	4f)	4c
=	=	=	=
4An	4E	(8.cL 8.e	2ryy
.	.	16AJk 16c	.
4A	4E	4c) 4e	.
*v	*v	*	*
=	=	=
!	!LO:TX:b:i:t=cresc.	!
4EE 4E	(8.f#L	4A 4c
.	16d#XJk	.
4EE 4E	4f#)	4A 4c
*	*v	*v
=	=
*-	*-
!!!system-decoration: {(s1,s2)}
